icon/ir/brightness.svg

<svg viewBox="0 0 24 24" stroke-width="1.5" fill="none" xmlns="http://www.w3.org/2000/svg" height="1em" width="1em">
  <path d="M12 7L13.5307 8.30448L15.5355 8.46447L15.6955 10.4693L17 12L15.6955 13.5307L15.5355 15.5355L13.5307 15.6955L12 17L10.4693 15.6955L8.46447 15.5355L8.30448 13.5307L7 12L8.30448 10.4693L8.46447 8.46447L10.4693 8.30448L12 7Z" stroke="currentColor"/>
  <path d="M10.4693 15.6955L12 17V7L10.4693 8.30448L8.46447 8.46447L8.30448 10.4693L7 12L8.30448 13.5307L8.46447 15.5355L10.4693 15.6955Z" fill="currentColor"/>
  <path d="M21 3.6V20.4C21 20.7314 20.7314 21 20.4 21H3.6C3.26863 21 3 20.7314 3 20.4V3.6C3 3.26863 3.26863 3 3.6 3H20.4C20.7314 3 21 3.26863 21 3.6Z" stroke="currentColor" stroke-linecap="round" stroke-linejoin="round"/>
</svg>

<svg width="24" height="24" stroke-width="1.5" fill="none" xmlns="http://www.w3.org/2000/svg"><path d="m12 7 1.53 1.304 2.006.16.16 2.005L17 12l-1.305 1.53-.16 2.006-2.004.16L12 17l-1.53-1.305-2.006-.16-.16-2.004L7 12l1.304-1.53.16-2.006 2.005-.16L12 7Z" stroke="currentColor"/><path d="M10.47 15.695 12 17V7l-1.53 1.304-2.006.16-.16 2.005L7 12l1.304 1.53.16 2.006 2.005.16Z" fill="currentColor"/><path d="M21 3.6v16.8a.6.6 0 0 1-.6.6H3.6a.6.6 0 0 1-.6-.6V3.6a.6.6 0 0 1 .6-.6h16.8a.6.6 0 0 1 .6.6Z" stroke="currentColor" stroke-linecap="round" stroke-linejoin="round"/></svg>
